build/images/icons/mapIcon.svg

<svg width="88" height="114" viewBox="0 0 88 114" fill="none" xmlns="http://www.w3.org/2000/svg">
<path d="M44 0C67.94 0 87.418 19.478 87.418 43.418C87.418 52.892 84.4255 61.894 78.7566 69.4465L46.6763 112.653C46.5962 112.758 46.4737 112.798 46.3847 112.891C44.7815 114.608 42.4681 114.176 41.3259 112.653C32.0879 100.327 15.1549 77.3062 8.64441 68.6227C8.64441 68.6227 8.64219 68.616 8.63996 68.6115L8.59988 68.5581C3.3541 61.1882 0.582031 52.4957 0.582031 43.418C0.582031 19.478 20.06 0 44 0Z" fill="#121F35"/>
<path d="M43.9999 71.6156C36.9714 71.6156 30.3641 68.7252 25.3976 63.4832C20.4309 58.2346 17.6923 51.2612 17.6923 43.843C17.6923 36.4249 20.4309 29.4514 25.3976 24.2095C30.3705 18.9676 36.9714 16.0771 43.9999 16.0771C51.0285 16.0771 57.6358 18.9676 62.6024 24.2095C67.569 29.4514 70.3077 36.4249 70.3077 43.843C70.3077 51.2612 67.569 58.2346 62.6024 63.4765C57.6358 68.7252 51.0285 71.6156 43.9999 71.6156ZM43.9999 17.775C37.6736 17.775 31.3408 20.3151 26.5275 25.402C16.8943 35.5692 16.8943 52.1168 26.5275 62.2906C36.1606 72.4578 51.8393 72.4578 61.4788 62.2906C71.112 52.1236 71.112 35.5759 61.4788 25.402C56.6591 20.3151 50.3327 17.775 43.9999 17.775Z" fill="#EAC57E"/>
<path d="M49.8119 70.9133C45.0136 72.2467 39.991 71.672 35.5695 69.2661C30.9067 66.7322 27.4726 62.4573 25.9047 57.2461C24.3351 52.0283 24.8196 46.4974 27.2673 41.6533C27.4044 41.3785 27.5495 41.1084 27.7024 40.8431C27.9271 40.4394 28.4237 40.3084 28.8129 40.5414C29.2021 40.7745 29.3284 41.2894 29.1037 41.6931C28.9661 41.9402 28.8348 42.1855 28.7052 42.4374C26.4617 46.8766 26.0155 51.9582 27.4539 56.7459C28.8922 61.5336 32.0452 65.4479 36.3272 67.7813C40.6074 70.1081 45.5134 70.569 50.1235 69.079C54.7398 67.5873 58.514 64.3172 60.7638 59.8763C63.0073 55.4372 63.4535 50.3555 62.0151 45.5678C60.5768 40.7802 57.4238 36.8658 53.1418 34.5325C49.5567 32.5835 45.5632 31.9386 41.5889 32.667C41.1467 32.7481 40.7248 32.4406 40.6483 31.9884C40.57 31.5297 40.8665 31.0922 41.3025 31.0128C45.6343 30.2128 49.9859 30.9184 53.8916 33.043C58.5561 35.5833 61.9885 39.8517 63.5564 45.0629C65.126 50.2807 64.6432 55.8181 62.1937 60.6557C59.7443 65.4933 55.6288 69.0531 50.6041 70.6792C50.3364 70.7606 50.0749 70.8402 49.8119 70.9133Z" fill="#EAC57E"/>
</svg>

<svg width="88" height="114" fill="none" xmlns="http://www.w3.org/2000/svg"><path d="M44 0c23.94 0 43.418 19.478 43.418 43.418 0 9.474-2.993 18.476-8.661 26.029l-32.08 43.206c-.08.105-.203.145-.292.238-1.603 1.717-3.917 1.285-5.06-.238-9.237-12.326-26.17-35.347-32.68-44.03l-.005-.011-.04-.054C3.354 61.188.582 52.496.582 43.418.582 19.478 20.06 0 44 0z" fill="#121F35"/><path d="M44 71.616c-7.029 0-13.636-2.89-18.602-8.133-4.967-5.248-7.706-12.222-7.706-19.64 0-7.418 2.739-14.392 7.706-19.634C30.37 18.968 36.97 16.078 44 16.078s13.636 2.89 18.602 8.132c4.967 5.242 7.706 12.216 7.706 19.634 0 7.418-2.739 14.392-7.706 19.633-4.966 5.25-11.573 8.14-18.602 8.14zm0-53.841c-6.326 0-12.66 2.54-17.473 7.627-9.633 10.167-9.633 26.715 0 36.889 9.634 10.167 25.312 10.167 34.952 0 9.633-10.167 9.633-26.715 0-36.889-4.82-5.087-11.146-7.627-17.48-7.627z" fill="#EAC57E"/><path d="M49.812 70.913c-4.798 1.334-9.821.759-14.242-1.647-4.663-2.534-8.097-6.809-9.665-12.02a20.997 20.997 0 011.797-16.403.795.795 0 011.11-.302c.39.234.516.748.292 1.152a19.288 19.288 0 00-1.65 15.053c1.438 4.788 4.591 8.702 8.873 11.035 4.28 2.327 9.186 2.788 13.797 1.298 4.616-1.492 8.39-4.762 10.64-9.203a19.288 19.288 0 001.251-14.308c-1.438-4.788-4.591-8.702-8.873-11.035-3.585-1.95-7.579-2.594-11.553-1.866a.815.815 0 01-.94-.679c-.079-.458.218-.896.654-.975 4.331-.8 8.683-.095 12.589 2.03 4.664 2.54 8.096 6.809 9.664 12.02 1.57 5.218 1.087 10.755-1.362 15.593-2.45 4.837-6.565 8.397-11.59 10.023-.268.082-.53.161-.792.234z" fill="#EAC57E"/></svg>
